X:1
T:Title
%%score { ( 1 3 ) | 2 }
L:1/8
M:6/8
K:Eb
V:1 treble nm="Grand Piano"
V:3 treble 
V:2 bass 
V:1
 z3 z2[Q:1/4=84] B | B=AB GFE | BBB B2 B | ccc [GB][GB]G | E[EF][EG] [DF]2 [DB] | %5
 B=AB G[B,DF][B,_DE] | [A,CE][CEA][Ec] [Ee]2 [Ae] | [Ge][EB][Ec] [EG]2 [DF] |[M:5/8] E-E- E3 | %9
[M:1/8] [GB] |[M:3/4] z2 z .[Ge]3 | [Ad]6 | [Bd][Ac] [GB] [FA]2 [GB] | [EG]6 | %14
 [GB][Ac] [Ad] [Ge]2 B |[M:7/8] cAA c3 e | %16
[M:3/4] eB c [EG]2 [DF][Q:1/4=81][Q:1/4=79][Q:1/4=76][Q:1/4=74][Q:1/4=71][Q:1/4=68][Q:1/4=66] | %17
[M:5/8] E-E- E3 |] %18
V:2
 z3 z2 [E,G,E] | [E,G,E][E,_G,E][E,=G,E] [E,B,E][A,B,D][G,B,] | %2
 [G,B,E][G,B,E][F,A,D] [E,G,E]2 [E,G,E] | [A,E][A,E][A,E] [E,E][E,E][E,B,E] | %4
 [C,=A,][C,A,][F,A,] [B,,B,]2 [B,,A,] | [E,G,E][E,_G,E][E,=G,E] [E,B,E]B,,E, | %6
 A,,A,,[A,,A,] [A,,C]2 [A,,C] | [B,,B,][B,,G,][B,,A,] [B,,B,]2 [B,,A,] | %8
[M:5/8] [E,G,]-[E,G,]- [E,G,]3 |[M:1/8] [E,E] |[M:3/4] [E,E][E,E] [E,E][E,B,] z [E,B,] | %11
 [F,B,]2 F, F,2 [B,FA] | [B,,B,][B,,B,] [B,,B,][B,,B,] [B,,B,][B,,B,] | [E,B,]2 E, E,2 [E,E] | %14
 [E,E][A,E] [F,B,] [E,B,]2[K:treble] [G,B,E] |[M:7/8] [A,E][A,CE][A,CE] [A,E]3 [A,CA] | %16
[M:3/4] [B,G][B,EG] [B,EG][K:bass] [B,,B,]2 [B,,A,] |[M:5/8] [E,G,]-[E,G,]- [E,G,]3 |] %18
V:3
 x6 | x6 | x6 | x6 | x6 | x6 | x6 | x6 |[M:5/8] x5 |[M:1/8] x |[M:3/4] [GB][Gc] .[Gd]2 [E,B,][Gc] | %11
 z2 B, B,2 c | x6 | z2 B, B,2 [GB] | x6 |[M:7/8] x7 |[M:3/4] x6 |[M:5/8] x5 |] %18

